X:3
T:2025-02-25
T:Sarah's Birthday Hornpipe, One Year Short of the Ultimate Answer
T: The Yeovilton Shredder, The Naughty Party
M:4/4
K:G
L:1/8
(3GBd | g>d B>G D>G B>g | f>A A>B A2 A>B | c>A F>A D>A FA | e>d d>^c d2 (3GBd |
 | g>d B>G D>E F>G | f>A A>G A2 (3ABc | f>A F>A d>a f>d | (3ded (3cBA G2 :|
 GA BG FG D2 | (3FGA BG FG A2 | ABcA FA f2 | f>e e>d d>^c d2 |
 GA BG FG D2 | (3GBd g>d B>G A2 | A>B c>A F>A f>e | (3ded (3cBA G2 :|

